packages/core/src/svgs/tokens/branded/ETP.svg

<svg width="24" height="24" viewBox="0 0 24 24" fill="none" xmlns="http://www.w3.org/2000/svg">
<path d="M14.0386 8.73844V15.5427C14.0426 15.6186 14.0249 15.6938 13.9876 15.7598C13.9502 15.8257 13.8946 15.8797 13.8276 15.915C13.2455 16.2584 12.3466 16.6307 11.7264 17.0123V10.1223C11.7264 9.94074 11.6981 9.83553 11.5264 9.75002C11.5264 9.75002 10.7177 9.17776 10.2119 8.89104C10.1547 8.85288 10.0783 8.83323 9.99214 8.79565V14.9699C9.99214 15.1705 9.9541 15.2757 9.79224 15.371C9.28637 15.648 8.43836 15.9433 7.94238 16.2301L7.67994 16.3631V10.142C7.67994 9.90324 7.61752 9.78873 7.42618 9.68352C6.87297 9.37829 6.4874 9.04423 5.91455 8.71011C6.55389 8.33784 7.1649 7.97539 7.79498 7.63202C7.85221 7.60312 7.96666 7.64128 8.04297 7.68925L9.8586 8.61473C9.98296 8.69103 10.0783 8.71011 10.2119 8.61473C10.7084 8.31876 11.0206 8.04245 11.5166 7.73665C11.6981 7.62219 11.8223 7.64128 11.994 7.73665L14.0386 8.73844ZM14.0282 8.74768L14.1612 8.61473C14.6965 8.30836 15.3318 7.9939 15.8756 7.69793C15.9282 7.6745 15.9852 7.66239 16.0428 7.66239C16.1004 7.66239 16.1573 7.6745 16.2099 7.69793C16.763 7.9939 17.3925 8.30894 17.9266 8.63323C18.0035 8.67138 18.085 8.79509 18.085 8.87197V15.0751C18.085 15.133 18.07 15.237 18.0227 15.2658C17.4018 15.6381 16.4411 15.9914 15.7729 16.3729V10.0934C15.7729 9.93157 15.7387 9.82636 15.5861 9.74085C15.004 9.41592 14.6207 9.07255 14.0386 8.73844L14.0282 8.74768Z" fill="white"/>
<path d="M11.1861 4.10412C11.6424 4.10412 12.0123 3.73429 12.0123 3.27808C12.0123 2.82186 11.6424 2.45203 11.1861 2.45203C10.7299 2.45203 10.3601 2.82186 10.3601 3.27808C10.3601 3.73429 10.7299 4.10412 11.1861 4.10412Z" fill="#E3953B"/>
<path d="M15.9328 4.63337C16.3009 4.63337 16.5994 4.33496 16.5994 3.96687C16.5994 3.59876 16.3009 3.30035 15.9328 3.30035C15.5647 3.30035 15.2664 3.59876 15.2664 3.96687C15.2664 4.33496 15.5647 4.63337 15.9328 4.63337Z" fill="#E5C148"/>
<path d="M19.3482 7.37506C19.6294 7.37506 19.8575 7.14704 19.8575 6.86578C19.8575 6.58452 19.6294 6.35651 19.3482 6.35651C19.067 6.35651 18.8389 6.58452 18.8389 6.86578C18.8389 7.14704 19.067 7.37506 19.3482 7.37506Z" fill="#E5C148"/>
<path d="M20.8218 12.3147C21.4725 12.3147 22 11.7873 22 11.1366C22 10.4859 21.4725 9.95856 20.8218 9.95856C20.1713 9.95856 19.6438 10.4859 19.6438 11.1366C19.6438 11.7873 20.1713 12.3147 20.8218 12.3147Z" fill="#27608C"/>
<path d="M4.14711 10.0694C4.82647 10.0694 5.37722 9.51873 5.37722 8.83931C5.37722 8.15994 4.82647 7.60919 4.14711 7.60919C3.46774 7.60919 2.91699 8.15994 2.91699 8.83931C2.91699 9.51873 3.46774 10.0694 4.14711 10.0694Z" fill="#DC6E32"/>
<path d="M20.2265 16.7166C20.81 16.7166 21.2831 16.2436 21.2831 15.6599C21.2831 15.0763 20.81 14.6033 20.2265 14.6033C19.6428 14.6033 19.1697 15.0763 19.1697 15.6599C19.1697 16.2436 19.6428 16.7166 20.2265 16.7166Z" fill="#3F8EB9"/>
<path d="M6.90948 6.0805C7.49307 6.0805 7.96617 5.60739 7.96617 5.0238C7.96617 4.4402 7.49307 3.9671 6.90948 3.9671C6.32588 3.9671 5.85278 4.4402 5.85278 5.0238C5.85278 5.60739 6.32588 6.0805 6.90948 6.0805Z" fill="#DC6E32"/>
<path d="M17.4959 19.9927C17.9326 19.9927 18.2867 19.6387 18.2867 19.2019C18.2867 18.7652 17.9326 18.4111 17.4959 18.4111C17.0591 18.4111 16.7051 18.7652 16.7051 19.2019C16.7051 19.6387 17.0591 19.9927 17.4959 19.9927Z" fill="#3F8EB9"/>
<path d="M13.4321 21.5479C13.8411 21.5479 14.1726 21.2164 14.1726 20.8075C14.1726 20.3985 13.8411 20.067 13.4321 20.067C13.0232 20.067 12.6917 20.3985 12.6917 20.8075C12.6917 21.2164 13.0232 21.5479 13.4321 21.5479Z" fill="#3F8EB9"/>
<path d="M9.09417 20.744C9.41342 20.744 9.67216 20.4851 9.67216 20.1659C9.67216 19.8466 9.41342 19.5878 9.09417 19.5878C8.77491 19.5878 8.51611 19.8466 8.51611 20.1659C8.51611 20.4851 8.77491 20.744 9.09417 20.744Z" fill="#3F8EB9"/>
<path d="M5.18205 18.7633C5.88409 18.7633 6.45321 18.1943 6.45321 17.4922C6.45321 16.7901 5.88409 16.2209 5.18205 16.2209C4.48001 16.2209 3.91089 16.7901 3.91089 17.4922C3.91089 18.1943 4.48001 18.7633 5.18205 18.7633Z" fill="#CC3D27"/>
<path d="M3.36249 14.6898C4.11497 14.6898 4.72499 14.0799 4.72499 13.3274C4.72499 12.5748 4.11497 11.9648 3.36249 11.9648C2.61001 11.9648 2 12.5748 2 13.3274C2 14.0799 2.61001 14.6898 3.36249 14.6898Z" fill="#CB362A"/>
</svg>

<svg xmlns="http://www.w3.org/2000/svg" width="24" height="24" fill="none" viewBox="0 0 24 24">
    <path fill="#fff" d="M14.039 8.738v6.805a.4.4 0 0 1-.211.372c-.582.343-1.481.716-2.102 1.097v-6.89c0-.181-.028-.286-.2-.372 0 0-.808-.572-1.314-.859-.057-.038-.134-.058-.22-.095v6.174c0 .2-.038.306-.2.401-.506.277-1.354.572-1.85.86l-.262.132v-6.221c0-.239-.062-.353-.254-.458-.553-.306-.939-.64-1.511-.974.639-.372 1.25-.735 1.88-1.078.057-.029.172.01.248.057l1.816.926c.124.076.22.095.353 0 .496-.296.809-.573 1.305-.878.181-.115.305-.096.477 0zm-.01.01.132-.133c.536-.307 1.17-.621 1.715-.917a.4.4 0 0 1 .334 0c.553.296 1.182.61 1.717.935.076.038.158.162.158.239v6.203c0 .058-.015.162-.062.19-.621.373-1.582.726-2.25 1.108v-6.28c0-.161-.034-.267-.187-.352-.582-.325-.965-.668-1.547-1.003z"/>
    <path fill="#E3953B" d="M11.186 4.104a.826.826 0 1 0 0-1.652.826.826 0 0 0 0 1.652"/>
    <path fill="#E5C148" d="M15.933 4.633a.667.667 0 1 0 0-1.333.667.667 0 0 0 0 1.333m3.415 2.742a.51.51 0 1 0 0-1.019.51.51 0 0 0 0 1.02"/>
    <path fill="#27608C" d="M20.822 12.315a1.178 1.178 0 1 0 0-2.357 1.178 1.178 0 0 0 0 2.357"/>
    <path fill="#DC6E32" d="M4.147 10.07a1.23 1.23 0 1 0 0-2.46 1.23 1.23 0 0 0 0 2.46"/>
    <path fill="#3F8EB9" d="M20.227 16.717a1.057 1.057 0 1 0 0-2.114 1.057 1.057 0 0 0 0 2.114"/>
    <path fill="#DC6E32" d="M6.91 6.08a1.057 1.057 0 1 0 0-2.113 1.057 1.057 0 0 0 0 2.113"/>
    <path fill="#3F8EB9" d="M17.496 19.993a.79.79 0 1 0 0-1.582.79.79 0 0 0 0 1.582m-4.064 1.555a.74.74 0 1 0 0-1.481.74.74 0 0 0 0 1.48m-4.338-.803a.578.578 0 1 0 0-1.156.578.578 0 0 0 0 1.156"/>
    <path fill="#CC3D27" d="M5.182 18.763a1.271 1.271 0 1 0 0-2.542 1.271 1.271 0 0 0 0 2.542"/>
    <path fill="#CB362A" d="M3.362 14.69a1.362 1.362 0 1 0 0-2.725 1.362 1.362 0 0 0 0 2.725"/>
</svg>
